X: 9
T: The Kesh
R: jig
M: 6/8
L: 1/8
K: Gmaj
d|:G3 GAB | A3 ABd | edd gdd | edB dBA |
G3 GAB | A3 ABd | edd gdB | cAF G3 :||
|: B3 dBd | e/f/ge dBG |B3 dBG | A3 AGA |
B3 dBd | e/f/ge dBd | ge/f/g aga | bgf g3 :||


Tune 55	Setting 12493

